SVG/LeftRIght.svg

<svg height="46" viewBox="0 0 34 46" width="34" xmlns="http://www.w3.org/2000/svg" xmlns:xlink="http://www.w3.org/1999/xlink"><filter id="a" height="167.5%" width="160%" x="-30%" y="-33.8%"><feOffset dx="0" dy="1" in="SourceAlpha" result="shadowOffsetOuter1"/><feGaussianBlur in="shadowOffsetOuter1" result="shadowBlurOuter1" stdDeviation=".9"/><feColorMatrix in="shadowBlurOuter1" result="shadowMatrixOuter1" type="matrix" values="0 0 0 0 0   0 0 0 0 0   0 0 0 0 0  0 0 0 0.65 0"/><feMerge><feMergeNode in="shadowMatrixOuter1"/><feMergeNode in="SourceGraphic"/></feMerge></filter><g fill="none" filter="url(#a)" transform="translate(4 5)"><path d="m7 0v6.01h-1.02v-3.47l-5.98 5.47 5.98 5.46v-3.48h1.02v6.01h.02 3.96v-6.01h1.06v3.47l5.96-5.47-5.96-5.46v3.47h-1.06v-6z" fill="#fff"/><path d="m16.34 7.99-3.32-3.22v2.25h-3.02v-5.96h-.02v-.02h-1.94v6h-3.06v-2.28l-3.32 3.25 3.32 3.22v-2.25h3.06v6h.02 1.92.02v-6h3.02v2.26z" fill="#000"/></g></svg>

<svg width="24" height="24" viewBox="0 0 24 24" xmlns="http://www.w3.org/2000/svg"><defs><filter x="-17.8%" y="-13.8%" width="135.6%" height="140%" filterUnits="objectBoundingBox" id="a"><feOffset dy="1" in="SourceAlpha" result="shadowOffsetOuter1"/><feGaussianBlur stdDeviation=".9" in="shadowOffsetOuter1" result="shadowBlurOuter1"/><feColorMatrix values="0 0 0 0 0 0 0 0 0 0 0 0 0 0 0 0 0 0 0.65 0" in="shadowBlurOuter1" result="shadowMatrixOuter1"/><feMerge><feMergeNode in="shadowMatrixOuter1"/><feMergeNode in="SourceGraphic"/></feMerge></filter></defs><g filter="url(#a)" transform="translate(3 4)" fill="none"><path fill="#FFF" d="M7 0v6.01H5.98V2.54L0 8.01l5.98 5.46V9.99H7V16h3.98V9.99h1.06v3.47L18 7.99l-5.96-5.46V6h-1.06V0z"/><path fill="#000" d="M16.34 7.99l-3.32-3.22v2.25H10V1.06h-.02v-.02H8.04v6H4.98V4.76L1.66 8.01l3.32 3.22V8.98h3.06v6H10v-6h3.02v2.26z"/></g></svg>
